FINK
CUT[DIE SONNE BLICKT MIT HELLEM SCHEIN]
REG[Europa, Mitteleuropa, Deutschland]
KEY[F0358  16  C 4/4]
MEL[-5__  -6__-5__1__-5__  3__.2_1__
    -5__  4__.3_2_.1-7_.1  2___
    3___  2__.-7_-6_.-71_.2  -7___0__
    -5__  2__.1_-7__-2__  -4__.-3_-2__
    -5__  3__.2_1__-3__  -5__.-4_-3__
    -5__  1___2__3__  -6___
    4__2__  1___-7__-7__  1___0__ //] >>
FCT[Jugend - Lied, Belehrung, Optimismus]
